X: 1
T: Green Fields of America, The
S: Sessions in Leeds, West Yorkshire
Z: Hiroyuki Yamada
R: jig
M: 6/8
L: 1/8
T: Maid in the Meadow, The
D: Davy Spillane & Kevin Glackin "Forgotten Days"
Z: Contributed 20040423025241 by Hiroyuki Yamada slainte_mha@infoseek.jp
K: Gmaj
B | cec BdB | AGA BGE | DEG AGA | BdB AGE |
cec BdB | AGA BGE | DEG AGA | BGF G2:|
D | GBd gfg | ede gdB | GBd gdB | AGA BGE |
GBd gfg | ede gdB | GAB AGA | BGF G2:|
